X:1
T:The Virgin Mary Had a Baby Boy
L:1/8
Q:1/4=120
M:4/4
I:linebreak $
K:Eb
V:1 bass transpose=-12 nm="String Bass" snm="Bs."x
V:1
!mf!"^Calypso style" !>!E,3 !>!G,- G,2 !>!B,2 | !>!F,3 !>!B,- B,2 !>!B,,2 | %2
"^Calypso style" !>!E,3 !>!G,- G,2 !>!B,2 | !>!F,3 !>!B,- B,2 !>!B,,2 |"^sim." E,3 G,- G,2 B,2 |$ %5
 F,3 B,- B,2 B,,2 | E,3 G,- G,2 B,2 | F,3 B,- B,2 B,,2 | E,3 G,- G,2 B,2 | F,3 B,- B,2 B,,2 |$ %10
 E,3 G,- G,2 B,2 | F,3 B,- B,2 B,,2 | E,3 G,- G,2 B,2 | F,3 B,- B,2 B,,2 | F,3 B,- B,2 B,,2 |$ %15
 E,3 G,- G,2 B,2 | E3 E,- E,2 E,2 | A,3 F,- F,2 F,2 | B,3 B,,- B,,2 B,,2 | E,3 B,- B,2 B,,2 |$ %20
 E,3 G,- G,2 B,2 | E,3 B,- B,2 B,,2 | E,3 G,- G,2 B,2 | E,2 z2 B,,2 E,2 | E,3 G,- G,2 B,2 |$ %25
 E,3 B,- B,2 B,,2 | E,3 G,- G,2 B,2 | E,2 z2 B,,2 E,2 | E,3 G,- G,2 B,2 | F,3 B,- B,2 B,,2 |$ %30
 E,3 G,- G,2 B,2 | F,3 B,- B,2 B,,2 | E,3 G,- G,2 B,2 | F,3 B,- B,2 B,,2 | F,3 B,- B,2 B,,2 |$ %35
 E,3 G,- G,2 B,2 | E3 E,- E,2 E,2 | A,3 F,- F,2 F,2 | B,3 B,,- B,,2 B,,2 | E,3 B,- B,2 B,,2 |$ %40
 E,3 G,- G,2 B,2 | E,3 E,- E,2 B,,2 | E,3 G,- G,2 B,2 | E,2 z2 !>!B,,2 !>!E,2 | E,3 G,- G,2 B,2 |$ %45
 E,3 E,- E,2 B,,2 | E,3 G,- G,2 B,2 | E,2 z2 !>!B,,2 !>!E,2 | A,3 C- C2 E2 | E,3 G,- G,2 E,2 |$ %50
 A,3 C- C2 E2 | E,3 B,- B,2 B,,2 | E,3 B,- B,2 B,,2 | E,3 E,- E,2 B,,2 | E,3 G,- G,2 B,2 |$ %55
 E,2 z2 !>!B,,2 !>!E,2 | E,3 G,- G,2 B,,2 | E,3 E,- E,2 B,,2 | E,3 G,- G,2 B,2 | %59
 E,2 z2 !>!B,,2 !>!E,2 | E,2 z2 !>!B,,2 !>!E,2 |$ E,3 G,- G,2 B,2 | E,3 G,- G,2 B,2 | %63
 E,2 z2 !>!B,,2 !>!E,2 |[K:Ab]!f! A,,3 C,- C,2 E,2 | B,,3 E,- E,2 E,,2 |$ B,,3 E,- E,2 E,,2 | %67
 A,,3 C,- C,2 E,2 | A,3 C- C2 A,2 | D,3 B,,- B,,2 B,,2 | E,3 E,,- E,,2 E,,2 |$ A,,3 C,- C,2 E,2 | %72
 A,,3 C,- C,2 A,,2 | B,,3 E,- E,2 E,,2 | B,,3 E,- E,2 E,,2 | A,,3 C,- C,2 E,2 |$ %76
 A,,3 C,- C,2 A,,2 | D,3 B,,- B,,2 B,,2 | E,3 E,,- E,,2 E,,2 | A,,3 C,- C,2 E,2 | %80
 A,,3 C,- C,2 E,2 |$ A,,3 E,- E,2 E,,2 | A,,3 C,- C,2 E,2 | A,,2 z A,, E,,2 A,,2 | %84
 A,,3 C,- C,2 E,2 | A,,3 E,- E,2 E,,2 |$ A,,3 C,- C,2 E,2 | A,,2 z A,, E,,2 A,,2 | %88
 D,3 F,- F,2 A,2 | A,,3 C,- C,2 A,,2 | D,3 F,- F,2 A,2 |$ A,,3 C,- C,2 E,2 | A,,3 C,- C,2 E,2 | %93
 A,,3 E,- E,2 E,2 | A,,3 C,- C,2 E,2 | A,,2 z A,, E,,2 A,,2 |$ A,,3 C,- C,2 E,2 | %97
 A,,3 E,- E,2 E,2 | A,,3 C,- C,2 E,2 | A,,2 z A,, E,,2 A,,2 | A,,2 z A,, E,,2 A,,2 |$ %101
 A,,3 C,- C,2 A,,2 | D,3 F,,- F,,2 A,,2 |!<(! D,3 F,- F,2!<)! D,2 |!ff! !>!.E, z z2 z4 | %105
 z4 !>!.E,, z!>!.A,, z |$ z4 !>!.E,, z!>!.A,, z | z2 !>!.A,, z z2 !>!.C, z | %108
!f! E,3 G,,- G,,2 B,,2 |!<(! E,3 G,- G,2 E,2!<)! | !>!A,,3 !>!C,- C,2 !>!A,,2 |$ %111
 !>!D,3 !>!B,,- B,,2 !>!D,2 | !>!.E, z z2 z4 | !>!.E, z z2 z4 | !>!.E, z z2 !>!.E, z z2 | %115
 !>!.E, z z2 !>!.E, z!>!.A,, z |] %116

